X: 4
T: Avignon
M: 3/2
L: 1/8
K:C clef=treble-8 octave=1 
V:1
x12| D,12| C,12| D,12|
E,12| F,12| E,12| D,12|
D,12| G,12| F,12| E,12|
D,12| A,12| F,12| E,12|
E,12| G,12| G,12| A,12|
A,12| C12| B,12| A,12|
A,12| G,12| F,12| E,12|
E,12| G,12| A,12| E,12|
D,12| F,12| E,12| D,12|
D,12| A,,12| C,12| D,12|
E,12| F,12| E,12| D,12|
D,12| D,12| 

